icons/svg/shopping/radiotechnics.svg

<?xml version="1.0" encoding="UTF-8" standalone="no"?>
<!-- Created with Inkscape (http://www.inkscape.org/) -->

<svg
   xmlns:dc="http://purl.org/dc/elements/1.1/"
   xmlns:cc="http://creativecommons.org/ns#"
   xmlns:rdf="http://www.w3.org/1999/02/22-rdf-syntax-ns#"
   xmlns:svg="http://www.w3.org/2000/svg"
   xmlns="http://www.w3.org/2000/svg"
   xmlns:sodipodi="http://sodipodi.sourceforge.net/DTD/sodipodi-0.dtd"
   xmlns:inkscape="http://www.inkscape.org/namespaces/inkscape"
   version="1.0"
   width="580"
   height="580"
   id="svg2"
   sodipodi:version="0.32"
   inkscape:version="0.91 r"
   sodipodi:docname="radiotechnics.svg"
   inkscape:output_extension="org.inkscape.output.svg.inkscape">
  <metadata
     id="metadata10">
    <rdf:RDF>
      <cc:Work
         rdf:about="">
        <dc:format>image/svg+xml</dc:format>
        <dc:type
           rdf:resource="http://purl.org/dc/dcmitype/StillImage" />
        <cc:license
           rdf:resource="http://web.resource.org/cc/PublicDomain" />
        <dc:language>en</dc:language>
        <dc:title></dc:title>
      </cc:Work>
    </rdf:RDF>
  </metadata>
  <sodipodi:namedview
     inkscape:window-height="1004"
     inkscape:window-width="1920"
     inkscape:pageshadow="2"
     inkscape:pageopacity="0.0"
     guidetolerance="10.0"
     gridtolerance="10.0"
     objecttolerance="10.0"
     borderopacity="1.0"
     bordercolor="#666666"
     pagecolor="#ffffff"
     id="base"
     showgrid="false"
     inkscape:zoom="0.088388348"
     inkscape:cx="348.25527"
     inkscape:cy="1294.2037"
     inkscape:window-x="1680"
     inkscape:window-y="0"
     inkscape:current-layer="svg2"
     inkscape:window-maximized="1"
     inkscape:snap-bbox="true" />
  <defs
     id="defs4">
    <inkscape:perspective
       sodipodi:type="inkscape:persp3d"
       inkscape:vp_x="0 : 290 : 1"
       inkscape:vp_y="0 : 1000 : 0"
       inkscape:vp_z="580 : 290 : 1"
       inkscape:persp3d-origin="290 : 193.33333 : 1"
       id="perspective12" />
    <style
       type="text/css"
       id="style6">
   
    .fil0 {fill:#EF7900}
   
  </style>
    <inkscape:perspective
       id="perspective6807"
       inkscape:persp3d-origin="29.116032 : 19.410688 : 1"
       inkscape:vp_z="58.232063 : 29.116032 : 1"
       inkscape:vp_y="0 : 1000 : 0"
       inkscape:vp_x="0 : 29.116032 : 1"
       sodipodi:type="inkscape:persp3d" />
    <inkscape:perspective
       id="perspective6954"
       inkscape:persp3d-origin="290 : 193.33333 : 1"
       inkscape:vp_z="580 : 290 : 1"
       inkscape:vp_y="0 : 1000 : 0"
       inkscape:vp_x="0 : 290 : 1"
       sodipodi:type="inkscape:persp3d" />
    <inkscape:perspective
       id="perspective2541"
       inkscape:persp3d-origin="240 : 160 : 1"
       inkscape:vp_z="480 : 240 : 1"
       inkscape:vp_y="0 : 1000 : 0"
       inkscape:vp_x="0 : 240 : 1"
       sodipodi:type="inkscape:persp3d" />
    <inkscape:perspective
       id="perspective2750"
       inkscape:persp3d-origin="215 : 143.33333 : 1"
       inkscape:vp_z="430 : 215 : 1"
       inkscape:vp_y="0 : 1000 : 0"
       inkscape:vp_x="0 : 215 : 1"
       sodipodi:type="inkscape:persp3d" />
    <inkscape:perspective
       id="perspective3730"
       inkscape:persp3d-origin="88.929146 : 101.19778 : 1"
       inkscape:vp_z="177.85829 : 151.79668 : 1"
       inkscape:vp_y="0 : 1000 : 0"
       inkscape:vp_x="0 : 151.79668 : 1"
       sodipodi:type="inkscape:persp3d" />
  </defs>
  <g
     id="g1327">
    <path
       d="M 66.275,1.768 C 24.94,1.768 1.704,23.139 1.704,66.804 L 1.704,516.927 C 1.704,557.771 22.598,579.156 63.896,579.156 L 515.92,579.156 C 557.227,579.156 578.149,558.84 578.149,516.927 L 578.149,66.804 C 578.149,24.203 557.227,1.768 514.627,1.768 C 514.624,1.768 66.133,1.625 66.275,1.768 z"
       style="fill:#111111;stroke:#eeeeee;stroke-width:3.40799999"
       id="path1329" />
  </g>
  <g
     style="font-size:36.50536728px;font-style:normal;font-variant:normal;font-weight:bold;font-stretch:normal;text-align:start;line-height:125%;letter-spacing:0px;word-spacing:0px;writing-mode:lr-tb;text-anchor:start;fill:#000000;fill-opacity:1;stroke:none;font-family:Sans;-inkscape-font-specification:Sans Bold"
     id="text3857" />
  <g
     style="font-size:25.55375862px;font-style:normal;font-variant:normal;font-weight:bold;font-stretch:normal;text-align:start;line-height:125%;letter-spacing:0px;word-spacing:0px;writing-mode:lr-tb;text-anchor:start;fill:#000000;fill-opacity:1;stroke:none;font-family:Sans;-inkscape-font-specification:Sans Bold"
     id="text3896" />
  <g
     id="g8144"
     transform="matrix(0.21235796,0,0,0.21235796,323.3892,78.646311)" />
  <g
     transform="matrix(0.21235796,0,0,0.21235796,389.3892,78.646311)"
     id="g8150" />
  <g
     id="g4354"
     transform="matrix(0.31972367,0,0,0.31972367,268.65635,192.82199)" />
  <path
     inkscape:connector-curvature="0"
     style="fill:none;stroke:#ffffff;stroke-width:38.96170425;stroke-linecap:round;stroke-linejoin:round;stroke-miterlimit:10;stroke-opacity:1"
     stroke-miterlimit="10"
     d="m 366.61817,85.684794 -63.83878,63.838746 c -7.05206,7.05207 -13.16904,38.70846 -25.55886,51.09828 -12.35084,12.37034 -51.05931,51.0788 -76.59872,76.61819 -25.53942,25.5394 -44.02669,18.48733 -51.07875,25.55888 l -63.838777,63.83875 c -12.759944,12.74048 -12.759944,38.29936 0,51.05931 l 76.618167,76.63768 c 12.75994,12.75996 38.29936,12.75996 51.07883,0 l 63.8387,-63.85823 c 7.05214,-7.03259 0,-25.5394 25.53941,-51.0788 25.55887,-25.5394 51.89704,-51.85803 76.6377,-76.59871 24.76019,-24.76016 44.04622,-18.48733 51.09829,-25.55888 l 63.83877,-63.81926 c 12.74041,-12.77945 12.74041,-38.31884 0,-51.09828 0,0 -63.83877,-63.838752 -76.6377,-76.618195 -12.77948,-12.798922 -38.31881,-12.798922 -51.09828,-0.01948 z"
     id="path3-8" />
  <line
     style="fill:none;stroke:#ffffff;stroke-width:38.96170425;stroke-linecap:round;stroke-linejoin:round;stroke-miterlimit:10;stroke-opacity:1"
     stroke-miterlimit="10"
     x1="458.82141"
     y1="121.15958"
     x2="522.81543"
     y2="57.184528"
     id="line5" />
  <line
     style="fill:none;stroke:#ffffff;stroke-width:38.96170425;stroke-linecap:round;stroke-linejoin:round;stroke-miterlimit:10;stroke-opacity:1"
     stroke-miterlimit="10"
     x1="121.15956"
     y1="458.82077"
     x2="57.184498"
     y2="522.81537"
     id="line7" />
  <line
     style="fill:none;stroke:#ffffff;stroke-width:38.96170425;stroke-linecap:round;stroke-linejoin:round;stroke-miterlimit:10;stroke-opacity:1"
     stroke-miterlimit="10"
     x1="328.92401"
     y1="129.47696"
     x2="451.63303"
     y2="252.16743"
     id="line9" />
  <line
     style="fill:none;stroke:#ffffff;stroke-width:38.96170425;stroke-linecap:round;stroke-linejoin:round;stroke-miterlimit:10;stroke-opacity:1"
     stroke-miterlimit="10"
     x1="286.78165"
     y1="200.68588"
     x2="374.65948"
     y2="288.56436"
     id="line11" />
  <line
     style="fill:none;stroke:#ffffff;stroke-width:38.96170425;stroke-linecap:round;stroke-linejoin:round;stroke-miterlimit:10;stroke-opacity:1"
     stroke-miterlimit="10"
     x1="208.72545"
     y1="281.19373"
     x2="296.60333"
     y2="369.07217"
     id="line13" />
  <line
     style="fill:none;stroke:#ffffff;stroke-width:38.96170425;stroke-linecap:round;stroke-linejoin:round;stroke-miterlimit:10;stroke-opacity:1"
     stroke-miterlimit="10"
     x1="144.87228"
     y1="318.43213"
     x2="267.56213"
     y2="441.14224"
     id="line15" />
  <path
     style="fill:#ffffff;fill-opacity:1;fill-rule:evenodd;stroke:none;stroke-width:1px;stroke-linecap:butt;stroke-linejoin:miter;stroke-opacity:1"
     d="m 136.36028,317.7859 84.99219,-53.12011 101.33683,100.5196 -67.01306,74.36817 z"
     id="path4214"
     inkscape:connector-curvature="0" />
  <path
     style="fill:#ffffff;fill-opacity:1;fill-rule:evenodd;stroke:none;stroke-width:1px;stroke-linecap:butt;stroke-linejoin:miter;stroke-opacity:1"
     d="M 463.21163,240.18807 378.21944,293.30818 276.8826,192.78858 343.89567,118.42041 Z"
     id="path4214-3"
     inkscape:connector-curvature="0" />
</svg>

<svg width="580" height="580" viewBox="0 0 580 580" fill="none" xmlns="http://www.w3.org/2000/svg">
<g clip-path="url(#clip0)">
<path d="M66.2751 1.76863C24.9401 1.76863 1.7041 23.1396 1.7041 66.8046V516.928C1.7041 557.772 22.5981 579.157 63.8961 579.157H515.92C557.227 579.157 578.149 558.841 578.149 516.928V66.8046C578.149 24.2036 557.227 1.76863 514.627 1.76863C514.624 1.76863 66.1331 1.62563 66.2751 1.76863Z" fill="#111111" stroke="#EEEEEE" stroke-width="3.408"/>
<path d="M366.618 85.6857L302.779 149.524C295.727 156.576 289.61 188.233 277.22 200.623C264.87 212.993 226.161 251.701 200.622 277.241C175.082 302.78 156.595 295.728 149.543 302.8L85.7042 366.638C72.9443 379.379 72.9443 404.938 85.7042 417.698L162.322 494.335C175.082 507.095 200.622 507.095 213.401 494.335L277.24 430.477C284.292 423.445 277.24 404.938 302.779 379.398C328.338 353.859 354.676 327.54 379.417 302.8C404.177 278.04 423.463 284.312 430.515 277.241L494.354 213.422C507.095 200.642 507.095 175.103 494.354 162.323C494.354 162.323 430.515 98.4846 417.716 85.7051C404.937 72.9062 379.398 72.9062 366.618 85.6857V85.6857Z" stroke="white" stroke-width="38.9617" stroke-miterlimit="10" stroke-linecap="round" stroke-linejoin="round"/>
<path d="M458.821 121.159L522.815 57.1836" stroke="white" stroke-width="38.9617" stroke-miterlimit="10" stroke-linecap="round" stroke-linejoin="round"/>
<path d="M121.16 458.82L57.1846 522.815" stroke="white" stroke-width="38.9617" stroke-miterlimit="10" stroke-linecap="round" stroke-linejoin="round"/>
<path d="M328.924 129.477L451.633 252.167" stroke="white" stroke-width="38.9617" stroke-miterlimit="10" stroke-linecap="round" stroke-linejoin="round"/>
<path d="M286.782 200.686L374.66 288.564" stroke="white" stroke-width="38.9617" stroke-miterlimit="10" stroke-linecap="round" stroke-linejoin="round"/>
<path d="M208.725 281.193L296.603 369.072" stroke="white" stroke-width="38.9617" stroke-miterlimit="10" stroke-linecap="round" stroke-linejoin="round"/>
<path d="M144.872 318.432L267.562 441.142" stroke="white" stroke-width="38.9617" stroke-miterlimit="10" stroke-linecap="round" stroke-linejoin="round"/>
<path fill-rule="evenodd" clip-rule="evenodd" d="M136.36 317.786L221.353 264.666L322.689 365.186L255.676 439.554L136.36 317.786Z" fill="white"/>
<path fill-rule="evenodd" clip-rule="evenodd" d="M463.212 240.188L378.219 293.308L276.883 192.788L343.896 118.42L463.212 240.188Z" fill="white"/>
</g>
<defs>
<clipPath id="clip0">
<path d="M0 0H580V580H0V0Z" fill="white"/>
</clipPath>
</defs>
</svg>
